X: 289
T:the Top of Balvenie
B:William Marshall Volume 2nd Of A Collection Of Scottish Melodies (1845)
C:William Marshall
L:1/8
M:C
O:Scotland
R:Strathspey
Z:Clark Bernst + Richard Robinson
%%Page:23 - 1
F:http://richardrobinson.tunebook.org.uk/tune/4132
%%TBL:{"version":1,"type":"tune","id":"4132"}
K:G
%%staves {1 2}
V:1
g | \
G<G (Bc/d/) Gc Bc/d/   | DAFA cedB | \
G<G (Bc/d/) Gc (Bc/d/) | eg (f/g/a/f/) gGB & c2c2x3::
g | \
dgBg dgbg | dgBg aAce |1 \
dgBg dgbg | (3efg (3fga gGBg :|2 \
G<G (Bc/d/) Gc (Bc/d/) | eg f/g/a/f/ gGB |]
V:2 middle=d clef=bass
L:1/4
z/ | \
[Gg][Gg][Gg][Gg] | [Ff][Dd][Ff][Gg] | [Gg][Gg][Gg][Gg] | [Cc][Dd]gg/ :| \
z/ | \
[gbd'][gbd'][gbd'][gbd'] | [gbd'][gbd'][fc'd'][fc'd'] | \
[gbd'][gbd'][gbd'][gbd'] | [gc'e'][ac'd'][gbd'][gbd'] :| \
[Gg][Gg][Gg][Gg] | [cg][dac'][gb][gbd']/ |]

